@wave0 = {0 1 2 3 4 5 6 7 8 9 10 11 12 13 14 15 15 14 13 12 11 10 9 8 7 6 5 4 3 2 1 0 }


;A t120 o5 l4 @wd1 v9 cdef t60 cdef t30  cdef t150  cdef
A o5 l4 v15 cd t60 ef cdef t100 cdef t200 cdef
B o4 l4 @wd2 v15 cdcd
C o3 l4 @wave0 v3 c2c2
;F o4 l4 [v120 c v40 c v120 c v40 c]99
;E o4 l16 cwrc32r32crcr
E o4 cdefgab>c
